X:1
T:Pastore adolorato-Stelle ridenti
T:Giovanni Stefani
T:Source : Affetti amorosi-Canzonette ad una voce sola---Venetia---A.Vincenti---1621. Editor : André Vierendeels (20/11/15).
T:Notes : Original clefs : C1, F4 Alfabetto et intavolatura per chitarra Spagnola Terza impressione (first print 1618)
T:Stelle ridenti-Pastore adolorato
C:Giovanni Stefani
%%score 1 { ( 2 3 ) | 4 }
L:1/8
Q:1/4=80
M:4/4
K:C
V:1 treble nm="Soprano" snm="S"
V:2 treble nm="BC" snm="BC"
V:3 treble 
V:4 bass 
V:1
 z2 G2 G2 A2 | BABc d2 e2 | A4 A2 A2 | A2 B2 c4 | Bcdc B4 | A6 ^c2 | d3 A B4 | B2 G2 A2 B2 | %8
w: Stel- le ri-|den- * * * * ti'e|lie- te, ch'il|mio do- lor|ve- * * * de-|te, se|pur so- let-|ta, la nmia di-|
w: Pian- te fe-|li- * * * * ci'a-|ma- te, ch'a|miei so- spir|tre- * * * ma-|ta, se|pur tra vi-|a, la Don- na|
w: In- na- mo-|ra- * * * * ti|ven- ti, ch'un-|dit' i miei|la- * * * men-|ti, se|del mio co-|re, l'u- ni- co'a-|
w: Fre- schi ro-|scel- * * * * li'er-|ran- ti, sol|cal- di de|miei _ _ _ pian-|ti, se'in|al- cun lo-|co, il mio bel|
w: E tun che|pur _ _ _ _ go-|ver- ni, a-|mor miei spir-|ti'e- * * * ter-|ni, se|fai ch'il gior-|no, del mio ri-|
 c4 c4 | c2 d2 e4- | e2 d2 d3 c | c8 | _B6 GA | ^F4 A2 A2 | A3 B c2 d2 | e4 c3 B | B4 z2 d2 | %17
w: let- ta,|vo- stri lu-|* mi'un- qua ve-|dra,|deh per pie-|ta del mio|duol del- la mia|fe, fa- te|voi fe-|
w: mi- a,|a vo- str'om-|* bra'un- qua- ve-|dra,||||||
w: mo- re,|vo- stri'ac- cen-|* ti'un- qua ve-|dra,||||||
w: fo- co,|un- qua'in voi|* s'in- con- tre-|ra:||||||
w: tor- no,|ho- mai piu|* non tar- de-|ra,||||||
 B3 A A4 | _B2 B2 B4 | _B2 c2 A3 G | G8 |] %21
w: de per me,|fa- te voi|fe- de per _|me.|
w: ||||
w: ||||
w: ||||
w: ||||
V:2
 B8 | G6 G2 | ^F6 A2 | c2 B2 A4- | A2 A2 ^G4 | A8 | A4 G4- | G2 B2 ^F2 G2 | G8 | c8 | A4 B4 | G8 | %12
 G8 | A4 A4 | A2 F2 A2 G2 | G4 A2 A2 | B4 A4 | ^G4 A4 | _B4 B4 | c4 G2 ^F2 | G8 |] %21
V:3
 D8 | D6 E2 | D6 C2 | F2 G2 E4 | C2 F2 E4 | ^C8 | D4 D4- | D2 E2 D4 | E8 | E8 | A4 D4 | E8 | D8 | %13
 D4 ^F4 | D4 E2 D2 | E4 C2 D2 | E4 F4 | E4 ^C4 | G4 G4 | G4 D4 | D8 |] %21
V:4
 G,,8 | G,,2 A,,2 B,,2 C,2 | D,4 D,2 E,2 | F,2 G,2 A,2 G,F, | E,2 D,2 E,4 | A,,6 A,2 | ^F,4 G,4- | %7
 G,2 E,2 D,4 | C,4 C,2 B,,2 | A,,4 A,,2 G,,2 | F,,4 G,,4 | C,8 | G,,8 | D,4 D,2 C,2 | %14
 B,,2 A,,G,, A,,2 B,,2 | C,2 D,2 E,2 ^F,2 | ^G,4 A,2 D,2 | E,4 A,,4 | G,2 F,2 _E,2 D,2 | C,4 D,4 | %20
 G,,8 |] %21

